X:1
T:Il est n le divin enfant
C:Chant de Nol. Fichier ABC par Bernard Loffet
L:1/8
Q:300
M:4/4
K:G
|: [D2G,,2] [G2G,2] [G2G,,2] [BG,]G | [D2G,,2] [G2G,2] [G2G,,2] G,2 | [G2E,,2] [GE,]A [B2C,,2] [cG,]B | \
 [A2A,,2] [G2E,2] [AD,,]F [D2D,2] | [D2G,,2] [G2G,2] [G2G,,2] [BG,]G | [D2G,,2] [G2G,2] [G2G,,2] G,2 | \
 [G2E,,2] [A2A,2] [B2C,,2] [cC,]B | [A2D,,2] [d2D,2] [G2G,,2] G,2 | [B2G,,2] [c2G,2] [d2G,,2] [cG,]B | \
 [c2C,,2] [e2C,2] [d2G,,2] G,2 | [B2E,,2] [c2E,2] [d2C,,2] [eC,]d | [c2A,,2] [B2A,2] [B2D,,2] [A2D,2] | \
 [B2G,,2] [c2G,2] [d2G,,2] [cG,]B | [c2C,,2] [e2C,2] [d2G,,2] G,2 | [B2E,,2] [c2E,2] [d2C,,2] [eC,]d | \
 [c2A,,2] [B2A,2] [A2D,,2] D,2 :| \
W:Created with TablEdit http://www.tabledit.com/ by Bernard Loffet
